X:1
T:The Picture on the Wall
M:3/4
L:1/8
K:Ab
 EEE| E3 Ac A| F4 F2| F3 AG F| E3 EE E| E3| AcA| F4 F2| F3 AG F| E3 BB B|\
 A3 AA B| c4| c2| d3 dc A| B3 EE E| E3 Ac A|A-G BA GF| E3 AB c| A4 A2|\
 A3 AA B| c2 c2 c2| d3 dc A| B3 EE E| E3 Ac A|A-G BA GF| E3 AB c| A3||\
